public/fonts/icons/ms-word.svg

<?xml version="1.0" encoding="utf-8"?>

<!DOCTYPE svg PUBLIC "-//W3C//DTD SVG 1.1//EN" "http://www.w3.org/Graphics/SVG/1.1/DTD/svg11.dtd">
<svg version="1.1" xmlns="http://www.w3.org/2000/svg" xmlns:xlink="http://www.w3.org/1999/xlink" width="32" height="32" viewBox="0 0 32 32">
<g>
</g>
	<path d="M19.993 14.872h1.382l-1.594 7.068-2.073-9.938h-3.33l-2.41 9.938-1.807-9.938h-3.481l3.534 15.996h3.401l2.384-9.46 2.133 9.46h3.136l4.051-15.996h-5.326zM28.232 6.232l-4.465-4.464c-0.972-0.972-2.893-1.768-4.268-1.768h-15c-1.375 0-2.5 1.125-2.5 2.5v27c0 1.375 1.125 2.5 2.5 2.5h23c1.375 0 2.5-1.125 2.5-2.5v-19c0-1.375-0.796-3.296-1.768-4.268zM26.818 7.646c0.098 0.098 0.195 0.218 0.29 0.354h-5.108v-5.108c0.136 0.095 0.256 0.192 0.354 0.29l4.465 4.464zM28 29.5c0 0.271-0.229 0.5-0.5 0.5h-23c-0.271 0-0.5-0.229-0.5-0.5v-27c0-0.271 0.229-0.5 0.5-0.5h15c0.151 0 0.32 0.019 0.5 0.053v7.947h7.947c0.034 0.18 0.053 0.349 0.053 0.5v19z" fill="#000000"></path>
</svg>

<svg xmlns="http://www.w3.org/2000/svg" width="32" height="32" viewBox="0 0 32 32"><title>MS Word</title><path d="M19.993 14.872h1.382L19.78 21.94l-2.072-9.938h-3.33l-2.41 9.938-1.807-9.938H6.68l3.534 15.996h3.4L16 18.538l2.132 9.46h3.136l4.05-15.996h-5.325zm8.24-8.64l-4.466-4.464C22.795.796 20.874 0 19.5 0h-15A2.507 2.507 0 0 0 2 2.5v27C2 30.875 3.123 32 4.5 32h23c1.374 0 2.5-1.125 2.5-2.5v-19c0-1.375-.797-3.296-1.77-4.268zm-1.415 1.414c.098.098.195.218.29.354H22V2.892c.136.095.256.192.354.29l4.465 4.464zM28 29.5c0 .27-.23.5-.5.5h-23c-.27 0-.5-.23-.5-.5v-27c0-.27.23-.5.5-.5h15c.15 0 .32.02.5.053V10h7.947c.034.18.053.35.053.5v19z"/></svg>
